X: 7683
T: Coleraine, The
R: jig
M: 6/8
K: Aminor
D|:E2A ABc|Bee e2d|cBA ABc|BEE E2D|
E2A ABc|Bee e2d|cBA BA^G|1 A3 A2D:|2 A3 A2B||
|:c2c cBA|Bgg g2^g|aed cBA|^GAB E2E|
AEA BEB|cde fed|cBA E^FG|1 A3 A2B:|2 A3 A2D||

